X:1
T: Lady Glasgow
C:
R:Strathspey
Q: 128
K:A
M:4/4
L:1/16
E4|:A3c1/2d1/2 e3c f3d e3c|A3c1/2d1/2 e3d c3A e4|A3c1/2d1/2 e3c f3d e3c|df3 ce3 B3c d4|
A3c1/2d1/2 e3c f3d e3c|A3c1/2d1/2 e3d c3A e4|A3c1/2d1/2 e3c f3d e3c|df3 ce3 B3c d4|
a3e ce3 agfe c3e|a3e ce3 A3c e4|a3e ce3 agfe c3e|df3 ce3 B3c d4|
a3e ce3 agfe c3e|a3e ce3 A3c e4|fa3 ea3 df3 ce3|1B3c B3c d3e f4:|2d3e f3g a4||
